X: 11897
T: Emma's Hop
R: slip jig
M: 9/8
K: Bminor
|:BAB fBf gfe|fdB Bcd dBd|cAd cBA GFE|F2B dcB dcB|
dcB G3 dcB|F3 dcB F2D|EFG dcB AFA|1 B3 Bcd dcd:|2 B2A AFE EDE||
|:G3 BAG BAG|F3 Bcd fed|ecA cBA AFA|BFB AFA GFD|
EFG dcB fdB|gab f3 dcB|EFG dcB AFA|1 B2A AFE EDE:|2 B3 Bcd dcd||

